X:24
T:Reel 24
M: 4/4
L:1/8
K: D Major
F3GAFDF|AdFAdBAF|E2dBABAF|GBAFEDB,D|F3GAFDF|ABdFAdFA|G2BGF2AF|EGFED4:||:dfecdcBA|d2AGFAdc|BGBdABde|fdedfdec|dfecdcBA|d2AGFAdA|G2BGFADF|EGFED2(3ABc:|.abc